X:197
T: GUTEN TAG HERR PAPPELJENER
N: K2516
O: Europa, Mitteleuropa, Deutschland, Darmstadt
R: Kinder - Lied, Such - Spiel
M: 2/4
L: 1/16
K: Eb
EE | B2B2c2c2 | B4G2
E2 | B2B2c2c2 | B4G2
E2 | B2B2c2c2 | B4G2
E2 | B2B2c2c2 | B2z4

